X:1
T:We’ll Battle to the End
T:William Howard Doane
T:We’ll Battle to the End
T:Public Domain
T:Public Domain
C:William Howard Doane
Z:Public Domain
%%score ( 1 2 ) ( 3 4 )
L:1/8
M:4/4
K:C
V:1 treble 
V:2 treble 
V:3 bass 
V:4 bass 
V:1
 ([CE][DF]) | [EG]2 [EG]2 [EG]2 [Gc]2 | [FB]>[FA] [FB]>[Fd] [Ec]2 ([EG][FA]) | %3
w: 1.~Gird *|on, gird on your|ar- mor, and a- way, Like *|
w: 2.~Our *|foes are strong, but|great- er far is He Whose *|
w: 3.~No *|fal- t’ring step, no|faint and fear- ful heart, No *|
 [EG]2 [CE]>[EG] [Ec]2 (Bc) | [Gd]6 ([CE][DF]) | [EG]2 [EG]2 [EG]2 [Gc]2 | %6
w: he- roes be firm and *|Lead on *|your ranks to bat-|
w: arm is our strength and *|March on, *|march on with bold|
w: truce with the hosts of *|Be strong *|in Him, our ne-|
 [FB]>[FA] [FB]>[Fd] [Ec]2 [EG]2 | [FA]>[Ac] [GB]>[FA] (EF) [Gc]>[Fd] | [Ec]2 [FB]2 [Ec]2 || %9
w: tle for the Lord, Who tri-|umphed o- ver death and * the grave|you. * *|
w: and fear- less tread; We’ll con-|quer by His grace, but * we’ll ne-|yield. We’ll bat-|
w: ver fail- ing trust; Re- mem-|ber there’s a palm and * a crown|win. * *|
"^Refrain" [EG]2 | [EG]>[DF] [CE]>[DF] [EG]2 [Gc]2 | [Fd]>[Fc] [FB]>[Fc] [Fd]2 [FB]2 | %12
w: |||
w: tle|to the end, we’ll bat- tle|to the end, And then our|
w: |||
 [Ec]2 [EG]2 [EG]2 [Ec]2 | [Gd]6 [FG]2 | [EG]>[DF] [CE]>[DF] [EG]2 [Ec]2 | %15
w: |||
w: crown we’ll wear; We’ll|ga- ther|on the shore, re- joic- ing|
w: |||
 [Fc]>[FB] [FA]>[FB] [Fc]2 [FA]2 | G>[Ec] [Gc]>[Fd] [Ec]2 [DB]2 | [Ec]6 |] %18
w: |||
w: ev- er- more, With all the|no- ble ar- my there. *||
w: |||
V:2
 x2 | x8 | x8 | x6 G2 | x8 | x8 | x8 | x4 G2 x2 | x6 || x2 | x8 | x8 | x8 | x8 | x8 | x8 | %16
w: |||true;||||for|||||||||
w: |||shield;||||ver|||||||||
w: |||sin;||||to|||||||||
 G3/2 x13/2 | x6 |] %18
w: ||
w: ||
w: ||
V:3
 [C,G,]2 | [C,C]2 [C,C]2 [C,C]2 [E,C]2 | [G,D]>[G,C] [G,D]>[G,B,] [C,C]2 [C,C]2 | %3
 [C,C]2 [C,G,]>[C,C] [C,G,]2 [E,C]2 | ([G,B,]2 [G,B,]2 [G,B,]2) [C,G,]2 | %5
 [C,C]2 [C,C]2 [C,C]2 [E,C]2 | [G,D]>[G,C] [G,D]>[G,B,] [C,C]2 [C,C]2 | %7
 [F,C]>[F,C] [F,C]>[F,C] ([C,C][D,B,]) [E,C]>[F,A,] | G,2 [G,,G,]2 [C,G,]2 || [C,C]2 | %10
 [C,C]>[C,G,] [C,G,]>[C,G,] [C,C]2 [E,C]2 | [G,B,]>[G,C] [G,D]>[G,C] [G,B,]2 [G,D]2 | %12
 [C,C]2 [C,C]2 [C,C]2 [C,G,]2 | ([G,B,]2 [G,B,]2 [G,B,]2) [G,B,]2 | %14
 [C,C]>[C,G,] [C,G,]>[C,G,] [C,C]2 [C,_B,]2 | [F,A,]>[F,B,] [F,C]>[F,B,] [F,A,]2 [F,C]2 | %16
 [E,C]>[C,G,] [E,C]>[F,A,] G,2 [G,,G,]2 | [C,G,]6 |] %18
V:4
 x2 | x8 | x8 | x8 | x8 | x8 | x8 | x8 | G,2 x4 || x2 | x8 | x8 | x8 | x8 | x8 | x8 | x4 G,2 x2 | %17
 x6 |] %18

